X: 34360
T: Return, The
R: waltz
M: 3/4
K: Dmajor
A2|:F3E D2|A4d2|{d}f4d2|e3d c2|
f4B2|B3c A2|(E6|E4)G2|
F3E D2|A4d2|{d}f4d2|e3d c2|
d2A2B2|E4D2|(D6|D4):|
A2|B3c d2|e4a2|f4e2|d2e2f2|
a4c2|e2d2e2|f4B2|d2c2A2|
B3c d2|e2f2g2|a4f2|f3e d2|
d2A2B2|E4D2|(D6|D4)A2|
B3c d2|e4a2|f4e2|d2e2f2|
a4c2|e2d2e2|f4B2|A4B2|
G3A B2|c2d2e2|d3c d2|e3d e2|
1d2A2B2|E4D2|(D6|D4)||
2gf dB AF|E4D2|(D6|D4)||

